X: 15
M:2/4
L:1/16
K:G
uD2"^Segno"|\
ud2|\
|:g2bg agbg | d2fd adfd | g2bg agbg | dgfa g2d2 |
g2bg agbg | (3ddd.f.d adfd | gafg efdf | egfa gedB "^Segno":|


